X: 4082
T: Lady Charlotte Durham's    Strathspey
C: By Nath.Gow
%R: strathspey
B: Niel Gow & Sons "A Fourth Collection of Strathspey Reels, etc." v.4 p.8 #2
Z: 2022 John Chambers <jc:trillian.mit.edu>
M: C
L: 1/8
K: A
% - - - - - - - - - -
V: 1 staves=2
f !segno!|:\
e>Ac>A B=GGf | e>Ac>A .c/.d/.e =g2 | e=gdg BGG>f | eAcA .c/.d/.e a2 :| ce-ea =g>dBG | ce-ea ceae |
c<eA<a =g>dBG | c>Ad>B .c/.d/.e a2 || ce-ea =g>dBG | ce-ea ceae | d<fc<a B=gBG | cedf eTg !segno!a2 |]
% - - - - - - - - - -
% Voice 2 preserves the staff layout in the book.
V: 2 clef=bass middle=d
z !segno!|:\
a2a2 =g2g2 | a2a2 a2a2 | a2a2 =g2g2 | a2a2 e2A2 :| a2a2 =g2g2 | a2a2 a2a2 |
a2a2 =g2g2 | a2e2 A2A2 || a2a2 =g2g2 | a2a2 a2c'2 | d'2c'2 b2=g2 | a2d2 e2!segno!A2 |]


